build/images/camera.svg

<svg width="91" height="91" viewBox="0 0 91 91" fill="none" xmlns="http://www.w3.org/2000/svg">
<rect width="91" height="91" rx="45.5" fill="#FAC663"/>
<path d="M72.9987 41.6244C72.98 41.2178 72.7407 40.4641 71.3486 39.9845L34.2338 27.2097C32.3313 26.5545 30.22 27.4861 29.5275 29.2871L28.5228 31.9L26.2623 37.7792C25.5698 39.5803 26.5543 41.5787 28.4571 42.2343L39.2741 45.9568C39.0686 47.1404 39.4115 48.3097 40.1578 49.2043L37.8535 55.1969C37.7474 55.4727 37.4677 55.658 37.1573 55.658H30.4063V53.5725C30.4063 52.4226 29.418 51.487 28.2031 51.487H26.7344C26.3288 51.487 26 51.7983 26 52.1822V63.3048C26 63.6887 26.3288 64 26.7344 64H28.2031C29.418 64 30.4063 63.0644 30.4063 61.9145V59.829H37.1573C39.3134 59.829 41.2571 58.5405 41.994 56.6229L44.2498 50.7563C45.5407 50.5847 46.7139 49.8712 47.4103 48.7569L60.051 53.107C60.4642 53.2494 60.887 53.3169 61.3032 53.3169C62.5655 53.3168 63.7649 52.6957 64.4366 51.6589L65.8872 52.1587C66.051 52.2151 66.2209 52.2432 66.3902 52.2432C66.6016 52.2432 66.8123 52.1994 67.0096 52.1123C67.3649 51.9555 67.6344 51.677 67.7685 51.3284L69.7786 46.1006C70.023 45.4647 69.744 44.7679 69.1517 44.4332L71.5059 43.3941C72.8485 42.8015 73.0174 42.031 72.9987 41.6244ZM28.9375 61.9145C28.9375 62.2978 28.608 62.6097 28.2031 62.6097H27.4688V52.8774H28.2031C28.608 52.8774 28.9375 53.1892 28.9375 53.5725V61.9145ZM40.6138 56.1475C40.0872 57.5179 38.6981 58.4387 37.1573 58.4387H30.4063V57.0484H37.1573C38.0828 57.0484 38.9171 56.4954 39.2336 55.6725L41.3418 50.1899C41.5836 50.3274 41.8428 50.4455 42.118 50.5403C42.3133 50.6077 42.5104 50.6609 42.7079 50.7013L40.6138 56.1475ZM43.7264 49.4031C43.7094 49.403 43.6925 49.403 43.6756 49.404C43.3259 49.4084 42.969 49.354 42.6203 49.2338C42.2121 49.0932 41.8561 48.8767 41.5645 48.6071C41.5377 48.5763 41.5081 48.5478 41.4757 48.5216C40.9288 47.9702 40.6359 47.2216 40.6914 46.4446L45.9934 48.2692C45.4569 48.9666 44.6172 49.3771 43.7264 49.4031ZM68.3986 45.6251L66.3898 50.8523L65.0086 50.3764L66.9139 45.421L67.304 45.2489L68.3986 45.6251ZM70.8853 42.134L66.9595 43.8669L66.9583 43.8674L66.0181 44.2824L66.0171 44.2829L64.9148 44.7694C63.6212 45.3404 61.395 45.4323 60.0534 44.9701L31.91 35.2864C31.5289 35.1555 32.4875 35.8166 32.349 36.1774C32.2104 36.5382 31.0265 36.4617 31.4078 36.5929L59.5514 46.2768C60.2906 46.5315 61.2017 46.6555 62.1314 46.6555C63.1479 46.6555 64.1857 46.5065 65.0447 46.2179L63.3775 50.554C62.962 51.6347 61.6952 52.1938 60.5534 51.8004L28.9592 40.9278C27.8176 40.5345 27.227 39.3354 27.6424 38.2548L28.899 34.9868C29.318 35.5966 29.9412 36.0877 30.7174 36.3551L31.4078 36.5929C31.7885 36.7243 32.2103 36.5381 32.349 36.1774C32.4877 35.8167 32.2911 35.4177 31.91 35.2864L31.2198 35.0487C30.0784 34.6554 29.4876 33.4566 29.9028 32.376L30.1542 31.7223L30.9077 29.7626C31.3232 28.682 32.5899 28.1227 33.7317 28.5162L70.8464 41.2911C71.3179 41.4535 71.4923 41.6228 71.5277 41.6851C71.4982 41.7503 71.3401 41.9332 70.8853 42.134Z" fill="#FFFDFB"/>
<path d="M66.9595 43.8669L70.8853 42.134C71.3401 41.9332 71.4982 41.7503 71.5277 41.6851C71.4923 41.6228 71.3179 41.4535 70.8464 41.2911L33.7317 28.5162C32.5899 28.1227 31.3232 28.682 30.9077 29.7626L30.1542 31.7223L29.9028 32.376C29.4876 33.4566 30.0784 34.6554 31.2198 35.0487L31.91 35.2864L60.0534 44.9701C61.395 45.4323 63.6212 45.3404 64.9148 44.7694L66.0171 44.2829L66.0181 44.2824L66.9583 43.8674L66.9595 43.8669Z" fill="#FFFDFB"/>
</svg>

<svg width="91" height="91" fill="none" xmlns="http://www.w3.org/2000/svg"><rect width="91" height="91" rx="45.5" fill="#FAC663"/><path d="M72.999 41.624c-.019-.406-.258-1.16-1.65-1.64L34.234 27.21c-1.903-.655-4.014.276-4.707 2.077L28.523 31.9l-2.26 5.88c-.693 1.8.291 3.799 2.194 4.454l10.817 3.723a3.984 3.984 0 00.884 3.247l-2.305 5.993a.742.742 0 01-.696.461h-6.75v-2.086c0-1.15-.989-2.085-2.204-2.085h-1.469c-.405 0-.734.311-.734.695v11.123c0 .384.329.695.734.695h1.47c1.214 0 2.202-.936 2.202-2.086V59.83h6.751c2.156 0 4.1-1.288 4.837-3.206l2.256-5.867c1.29-.171 2.464-.885 3.16-2l12.641 4.351c.413.142.836.21 1.252.21 1.263 0 2.462-.621 3.134-1.658l1.45.5a1.544 1.544 0 001.123-.047 1.41 1.41 0 00.758-.784l2.01-5.227c.245-.636-.034-1.333-.626-1.668l2.354-1.039c1.343-.593 1.511-1.363 1.493-1.77zm-44.061 20.29c0 .384-.33.696-.735.696h-.734v-9.733h.734c.405 0 .735.312.735.695v8.342zm11.676-5.767c-.527 1.37-1.916 2.292-3.457 2.292h-6.75v-1.39h6.75c.926 0 1.76-.554 2.077-1.377l2.108-5.482a4.6 4.6 0 001.366.511l-2.094 5.447zm3.112-6.744l-.05.001c-.35.004-.707-.05-1.056-.17a2.979 2.979 0 01-1.055-.627.705.705 0 00-.09-.085 2.675 2.675 0 01-.784-2.077l5.302 1.824a2.964 2.964 0 01-2.267 1.134zM68.4 45.625l-2.01 5.227-1.38-.476 1.905-4.955.39-.172 1.095.376zm2.486-3.491l-3.925 1.733h-.002l-.94.415-1.103.487c-1.294.571-3.52.663-4.862.201L31.91 35.286c-.381-.13.577.53.439.891-.139.361-1.322.285-.941.416l28.143 9.684c.74.255 1.65.379 2.58.379 1.017 0 2.055-.15 2.914-.438l-1.668 4.336c-.415 1.08-1.682 1.64-2.824 1.246L28.96 40.928c-1.141-.393-1.732-1.593-1.317-2.673l1.257-3.268c.419.61 1.042 1.1 1.818 1.368l.69.238c.381.131.803-.055.942-.416.139-.36-.058-.76-.439-.89l-.69-.238c-1.142-.394-1.732-1.592-1.317-2.673l.251-.654.754-1.96c.415-1.08 1.682-1.64 2.824-1.246l37.114 12.775c.472.163.646.332.682.394-.03.065-.188.248-.643.449z" fill="#FFFDFB"/><path d="M66.96 43.867l3.925-1.733c.455-.2.613-.384.643-.449-.036-.062-.21-.232-.682-.394L33.732 28.516c-1.142-.393-2.409.166-2.824 1.247l-.754 1.96-.251.653c-.415 1.08.175 2.28 1.317 2.673l.69.237 28.143 9.684c1.342.462 3.568.37 4.862-.2l1.102-.487h.001l.94-.416h.002z" fill="#FFFDFB"/></svg>4 44.9701L31.91 35.2864C31.5289 35.1555 32.4875 35.8166 32.349 36.1774C32.2104 36.5382 31.0265 36.4617 31.4078 36.5929L59.5514 46.2768C60.2906 46.5315 61.2017 46.6555 62.1314 46.6555C63.1479 46.6555 64.1857 46.5065 65.0447 46.2179L63.3775 50.554C62.962 51.6347 61.6952 52.1938 60.5534 51.8004L28.9592 40.9278C27.8176 40.5345 27.227 39.3354 27.6424 38.2548L28.899 34.9868C29.318 35.5966 29.9412 36.0877 30.7174 36.3551L31.4078 36.5929C31.7885 36.7243 32.2103 36.5381 32.349 36.1774C32.4877 35.8167 32.2911 35.4177 31.91 35.2864L31.2198 35.0487C30.0784 34.6554 29.4876 33.4566 29.9028 32.376L30.1542 31.7223L30.9077 29.7626C31.3232 28.682 32.5899 28.1227 33.7317 28.5162L70.8464 41.2911C71.3179 41.4535 71.4923 41.6228 71.5277 41.6851C71.4982 41.7503 71.3401 41.9332 70.8853 42.134Z" fill="#FFFDFB"/>
<path d="M66.9595 43.8669L70.8853 42.134C71.3401 41.9332 71.4982 41.7503 71.5277 41.6851C71.4923 41.6228 71.3179 41.4535 70.8464 41.2911L33.7317 28.5162C32.5899 28.1227 31.3232 28.682 30.9077 29.7626L30.1542 31.7223L29.9028 32.376C29.4876 33.4566 30.0784 34.6554 31.2198 35.0487L31.91 35.2864L60.0534 44.9701C61.395 45.4323 63.6212 45.3404 64.9148 44.7694L66.0171 44.2829L66.0181 44.2824L66.9583 43.8674L66.9595 43.8669Z" fill="#FFFDFB"/>
</svg>
